X:35
T:Kitty's Wedding
Z: id:dc-hornpipe-32
M:C|
L:1/8
K:D Major
fe|d2Bd A2FA|BAFA D2ED|B,DA,D DFBF|AFDF E2fe|!
d2Bd A2FA|BAFA D2ED|B,DA,D DFBF|AFEF D2:|!
fg|afed bafd|Adfd edBd|DFAd FAde|faef e2fg|!
afed bafd|Adfd edBd|DFAd FAdf|eABc d2:|!

